!!!OTL: 324. Bundeslied.
!!!COM: J. Fr. Reichardt
!!!ODT: 1809
!!!ARE: Europa, Mitteleuropa, Deutschland
!!!SCT: B0324
!!!TXL: @@DE
!!!YEM: Copyright 1995, estate of Helmut Schaffrath.
**kern	**text
*ICvox	*
*Ivox	*
*M4/4	*
*met(c)	*
*clefG2	*
*k[b-e-a-]	*
*E-:	*
!LO:TX:a:t=Einʒelne.	!
!LO:TX:a:t=Feierlich froh.	!
{4B-	Jn
=1	=1
4e-	al-
4g	-len
4b-	gu-
4b-	-ten
=2	=2
2b-	Stun-
4g}	-den,
{4b-	er-
=3	=3
4ee-	-höht
4b-	von
4g	Lieb'
4e-	und
=4	=4
2b-	Wein,
4r}	.
{4B-	ſoll
=5	=5
4e-	die-
4g	-ſes
4b-	Lied
4b-	ver-
=6	=6
2b-	-bun-
4g}	-den
{4b-	von
=7	=7
4ee-	uns
4b-	ge-
4g	-ſun-
4e-	-gen
=8	=8
2b-	ſein!
4r}	.
{4b-	Uns
=9	=9
4b-	hält
4b-	der
4cc	Gott
4g	ʒu-
=10	=10
2b-	-ſam-
4a-}	-men,
{4f	der
=11	=11
4g	uns
4b-	hier-
4ee-	-her
8ccL	ge-
8anJ	.
=12	=12
2b-	-bracht.
4r}	.
{4dd	Er-
=13	=13
4g	-neu-
4e-	-ert
4ee-	unſ-
4ee-	-re
=14	=14
2ee-	Flammen,
4cc}	.
{4b-	er
=15	=15
4b-	hat
8gL	ſie
8e-J	.
4B-	an-
8cL	-ge-
8dJ	.
=16	=16
2e-	-ſacht.
4r}	.
{4b-	Uns
=17	=17
4b-	hält
4b-	der
4cc	Gott
4g	ʒu-
=18	=18
2b-	-ſam-
4a-}	-men,
{4f	der
=19	=19
4g	uns
4b-	hier-
4ee-	-her
8ccL	ge-
8anJ	.
=20	=20
2b-	-bracht.
4r}	.
{4dd	Er-
=21	=21
4g	-neu-
4e-	-ert
4ee-	unſ-
4ee-	-re
=22	=22
2ee-	Flammen,
4cc}	.
{4b-	er
=23	=23
4b-	hat
8gL	ſie
8e-J	.
4B-	an-
8cL	-ge-
8dJ	.
=24	=24
2e-	-ſacht.
4r}	.
==	==
!!!AGN: Trink -, Geselligkeits - Lied, Freundschaft
!!!GTL: Wein- und Trinklieder
!!!ONB: ESAC (Essen Associative Code) Database: BOEHME
!!!AMT: simple quadruple
!!!AIN: vox
!!!EED: Helmut Schaffrath
!!!EEV: 1.0
!!@@COMMENT:"Wolfgang von Goethe 1775. Urſprünglich ein Hochʒeitslied, ʒur Vermählung des Predigers
!!Ewald in Offenbach gedichtet. Melodien daʒu: a) von Reichardt 1809 (hier); b) von Ʒelter 1810
!!(ſ. Hoffmann Volksgeſangb. ); c) Neuere in Commersbüchern."
!!@@END:
!!!Text: J. W. Goethe
!!!URL-scan: https://archive.org/details/BoehmeVtLieder1895/page/n271/mode/2up
!!!ENC: Anna Maria Matuszewska
!!!EEV: 2024/04/07
*-	*-
